X:296
M:C|
L:1/8
K:D
d/c/B/A/ B>c d<DD:|
|:f/g/|a>fg>e f<d df/g/|a>fg>f e<E E>g|a>fg>e f>de>c|d/c/B/A/ B>c d<DD:|

